svg/SJJB-OpenStreetMapIcons/sport/soccer.svg

<?xml version="1.0" encoding="UTF-8" standalone="no"?>
<!-- Created with Inkscape (http://www.inkscape.org/) -->
<svg
   xmlns:i="http://ns.adobe.com/AdobeIllustrator/10.0/"
   xmlns:dc="http://purl.org/dc/elements/1.1/"
   xmlns:cc="http://creativecommons.org/ns#"
   xmlns:rdf="http://www.w3.org/1999/02/22-rdf-syntax-ns#"
   xmlns:svg="http://www.w3.org/2000/svg"
   xmlns="http://www.w3.org/2000/svg"
   xmlns:sodipodi="http://sodipodi.sourceforge.net/DTD/sodipodi-0.dtd"
   xmlns:inkscape="http://www.inkscape.org/namespaces/inkscape"
   version="1.0"
   width="580"
   height="580"
   id="svg2"
   sodipodi:version="0.32"
   inkscape:version="0.46"
   sodipodi:docname="socker.svg"
   sodipodi:docbase="s:\Data\FacilityIcons"
   inkscape:output_extension="org.inkscape.output.svg.inkscape">
  <metadata
     id="metadata2975">
    <rdf:RDF>
      <cc:Work
         rdf:about="">
        <dc:format>image/svg+xml</dc:format>
        <dc:type
           rdf:resource="http://purl.org/dc/dcmitype/StillImage" />
			  <cc:license
           rdf:resource="http://web.resource.org/cc/PublicDomain" />
        <dc:language>en</dc:language>
      </cc:Work>
    </rdf:RDF>
  </metadata>
  <sodipodi:namedview
     inkscape:window-height="947"
     inkscape:window-width="1048"
     inkscape:pageshadow="2"
     inkscape:pageopacity="0.0"
     guidetolerance="10.0"
     gridtolerance="10.0"
     objecttolerance="10.0"
     borderopacity="1.0"
     bordercolor="#666666"
     pagecolor="#ffffff"
     id="base"
     inkscape:zoom="0.46083856"
     inkscape:cx="-138.99905"
     inkscape:cy="55.113521"
     inkscape:window-x="11"
     inkscape:window-y="13"
     inkscape:current-layer="svg2"
     showgrid="false" />
  <defs
     id="defs4">
    <inkscape:perspective
       sodipodi:type="inkscape:persp3d"
       inkscape:vp_x="0 : 290 : 1"
       inkscape:vp_y="0 : 1000 : 0"
       inkscape:vp_z="580 : 290 : 1"
       inkscape:persp3d-origin="290 : 193.33333 : 1"
       id="perspective2441" />
    <inkscape:perspective
       id="perspective3452"
       inkscape:persp3d-origin="30 : 20 : 1"
       inkscape:vp_z="60 : 30 : 1"
       inkscape:vp_y="0 : 1000 : 0"
       inkscape:vp_x="0 : 30 : 1"
       sodipodi:type="inkscape:persp3d" />
    <symbol
       viewBox="244.5 110 489 219.9"
       id="symbol-university">
      <path
         id="path4460"
         d="M79,43l57,119c0,0,21-96,104-96s124,106,124,106l43-133l82-17L0,17L79,43z" />
      <path
         id="path4462"
         d="M94,176l-21,39"
         stroke-width="20"
         stroke="#000000"
         fill="none" />
      <path
         id="path4464"
         d="M300,19c0,10.5-22.6,19-50.5,19S199,29.5,199,19s22.6-19,50.5-19S300,8.5,300,19z" />
      <path
         id="path4466"
         d="M112,216l-16-38L64,88c0,0-9-8-4-35s16-24,16-24"
         stroke-width="20"
         stroke="#000000"
         ill="none" />
    </symbol>
    <inkscape:perspective
       id="perspective4471"
       inkscape:persp3d-origin="372.04724 : 350.78739 : 1"
       inkscape:vp_z="744.09448 : 526.18109 : 1"
       inkscape:vp_y="0 : 1000 : 0"
       inkscape:vp_x="0 : 526.18109 : 1"
       sodipodi:type="inkscape:persp3d" />
    <inkscape:perspective
       id="perspective4668"
       inkscape:persp3d-origin="6 : 4 : 1"
       inkscape:vp_z="12 : 6 : 1"
       inkscape:vp_y="0 : 1000 : 0"
       inkscape:vp_x="0 : 6 : 1"
       sodipodi:type="inkscape:persp3d" />
    <inkscape:perspective
       id="perspective4904"
       inkscape:persp3d-origin="16 : 10.666667 : 1"
       inkscape:vp_z="32 : 16 : 1"
       inkscape:vp_y="0 : 1000 : 0"
       inkscape:vp_x="0 : 16 : 1"
       sodipodi:type="inkscape:persp3d" />
    <marker
       style="overflow:visible;"
       id="Arrow2Lend"
       refX="0.0"
       refY="0.0"
       orient="auto"
       inkscape:stockid="Arrow2Lend">
      <path
         transform="scale(1.1) rotate(180) translate(1,0)"
         d="M 8.7185878,4.0337352 L -2.2072895,0.016013256 L 8.7185884,-4.0017078 C 6.9730900,-1.6296469 6.9831476,1.6157441 8.7185878,4.0337352 z "
         style="font-size:12.0;fill-rule:evenodd;stroke-width:0.62500000;stroke-linejoin:round;"
         id="path4137" />
    </marker>
    <marker
       style="overflow:visible;"
       id="Arrow1Mend"
       refX="0.0"
       refY="0.0"
       orient="auto"
       inkscape:stockid="Arrow1Mend">
      <path
         transform="scale(0.4) rotate(180) translate(10,0)"
         style="fill-rule:evenodd;stroke:#000000;stroke-width:1.0pt;marker-start:none;"
         d="M 0.0,0.0 L 5.0,-5.0 L -12.5,0.0 L 5.0,5.0 L 0.0,0.0 z "
         id="path4125" />
    </marker>
    <marker
       style="overflow:visible"
       id="TriangleOutL"
       refX="0.0"
       refY="0.0"
       orient="auto"
       inkscape:stockid="TriangleOutL">
      <path
         transform="scale(0.8)"
         style="fill-rule:evenodd;stroke:#000000;stroke-width:1.0pt;marker-start:none"
         d="M 5.77,0.0 L -2.88,5.0 L -2.88,-5.0 L 5.77,0.0 z "
         id="path4214" />
    </marker>
    <marker
       style="overflow:visible;"
       id="Arrow1Lend"
       refX="0.0"
       refY="0.0"
       orient="auto"
       inkscape:stockid="Arrow1Lend">
      <path
         transform="scale(0.8) rotate(180) translate(12.5,0)"
         style="fill-rule:evenodd;stroke:#000000;stroke-width:1.0pt;marker-start:none;"
         d="M 0.0,0.0 L 5.0,-5.0 L -12.5,0.0 L 5.0,5.0 L 0.0,0.0 z "
         id="path4119" />
    </marker>
    <marker
       style="overflow:visible"
       id="Tail"
       refX="0.0"
       refY="0.0"
       orient="auto"
       inkscape:stockid="Tail">
      <g
         transform="scale(-1.2)"
         id="g4152">
        <path
           style="fill:none;fill-rule:evenodd;stroke:#000000;stroke-width:0.8;marker-start:none;marker-end:none;stroke-linecap:round"
           d="M -3.8048674,-3.9585227 L 0.54352094,0"
           id="path4154" />
        <path
           style="fill:none;fill-rule:evenodd;stroke:#000000;stroke-width:0.8;marker-start:none;marker-end:none;stroke-linecap:round"
           d="M -1.2866832,-3.9585227 L 3.0617053,0"
           id="path4156" />
        <path
           style="fill:none;fill-rule:evenodd;stroke:#000000;stroke-width:0.8;marker-start:none;marker-end:none;stroke-linecap:round"
           d="M 1.3053582,-3.9585227 L 5.6537466,0"
           id="path4158" />
        <path
           style="fill:none;fill-rule:evenodd;stroke:#000000;stroke-width:0.8;marker-start:none;marker-end:none;stroke-linecap:round"
           d="M -3.8048674,4.1775838 L 0.54352094,0.21974226"
           id="path4160" />
        <path
           style="fill:none;fill-rule:evenodd;stroke:#000000;stroke-width:0.8;marker-start:none;marker-end:none;stroke-linecap:round"
           d="M -1.2866832,4.1775838 L 3.0617053,0.21974226"
           id="path4162" />
        <path
           style="fill:none;fill-rule:evenodd;stroke:#000000;stroke-width:0.8;marker-start:none;marker-end:none;stroke-linecap:round"
           d="M 1.3053582,4.1775838 L 5.6537466,0.21974226"
           id="path4164" />
      </g>
    </marker>
    <marker
       style="overflow:visible"
       id="Arrow1Sstart"
       refX="0.0"
       refY="0.0"
       orient="auto"
       inkscape:stockid="Arrow1Sstart">
      <path
         transform="scale(0.2) translate(6,0)"
         style="fill-rule:evenodd;stroke:#000000;stroke-width:1.0pt;marker-start:none"
         d="M 0.0,0.0 L 5.0,-5.0 L -12.5,0.0 L 5.0,5.0 L 0.0,0.0 z "
         id="path4128" />
    </marker>
    <marker
       style="overflow:visible;"
       id="Arrow1Send"
       refX="0.0"
       refY="0.0"
       orient="auto"
       inkscape:stockid="Arrow1Send">
      <path
         transform="scale(0.2) rotate(180) translate(6,0)"
         style="fill-rule:evenodd;stroke:#000000;stroke-width:1.0pt;marker-start:none;"
         d="M 0.0,0.0 L 5.0,-5.0 L -12.5,0.0 L 5.0,5.0 L 0.0,0.0 z "
         id="path4131" />
    </marker>
    <marker
       style="overflow:visible"
       id="SemiCircleOut"
       refX="0.0"
       refY="0.0"
       orient="auto"
       inkscape:stockid="SemiCircleOut">
      <path
         transform="scale(0.6) translate(7.125493,0.763446)"
         style="fill-rule:evenodd;stroke:#000000;stroke-width:1.0pt;marker-start:none;marker-end:none"
         d="M -2.5,-0.80913858 C -2.5,1.9508614 -4.7400000,4.1908614 -7.5,4.1908614 L -7.5,-5.8091386 C -4.7400000,-5.8091386 -2.5,-3.5691386 -2.5,-0.80913858 z "
         id="path4235" />
    </marker>
    <marker
       style="overflow:visible;"
       id="Arrow2Send"
       refX="0.0"
       refY="0.0"
       orient="auto"
       inkscape:stockid="Arrow2Send">
      <path
         transform="scale(0.3) rotate(180) translate(-2.3,0)"
         d="M 8.7185878,4.0337352 L -2.2072895,0.016013256 L 8.7185884,-4.0017078 C 6.9730900,-1.6296469 6.9831476,1.6157441 8.7185878,4.0337352 z "
         style="font-size:12.0;fill-rule:evenodd;stroke-width:0.62500000;stroke-linejoin:round;"
         id="path4149" />
    </marker>
    <marker
       style="overflow:visible"
       id="TriangleOutS"
       refX="0.0"
       refY="0.0"
       orient="auto"
       inkscape:stockid="TriangleOutS">
      <path
         transform="scale(0.2)"
         style="fill-rule:evenodd;stroke:#000000;stroke-width:1.0pt;marker-start:none"
         d="M 5.77,0.0 L -2.88,5.0 L -2.88,-5.0 L 5.77,0.0 z "
         id="path4220" />
    </marker>
    <marker
       style="overflow:visible"
       id="CurveIn"
       refX="0.0"
       refY="0.0"
       orient="auto"
       inkscape:stockid="CurveIn">
      <path
         transform="scale(0.6)"
         style="fill-rule:evenodd;stroke:#000000;stroke-width:1.0pt;marker-start:none;marker-end:none;fill:none"
         d="M 4.6254930,-5.0456926 C 1.8654930,-5.0456926 -0.37450702,-2.8056926 -0.37450702,-0.045692580 C -0.37450702,2.7143074 1.8654930,4.9543074 4.6254930,4.9543074"
         id="path4238" />
    </marker>
    <marker
       orient="auto"
       refY="0"
       refX="0"
       id="InfiniteLineStart"
       inkscape:stockid="InfiniteLineStart"
       style="overflow:visible">
      <g
         transform="translate(-13,0)"
         id="g4298">
        <circle
           cx="3"
           cy="0"
           r="0.8"
           id="circle4300" />
        <circle
           cx="6.5"
           cy="0"
           r="0.8"
           id="circle4302" />
        <circle
           cx="10"
           cy="0"
           r="0.8"
           id="circle4304" />
      </g>
    </marker>
    <marker
       style="overflow:visible"
       id="StopS"
       refX="0.0"
       refY="0.0"
       orient="auto"
       inkscape:stockid="StopS">
      <path
         transform="scale(0.2)"
         style="fill:none;fill-opacity:0.75000000;fill-rule:evenodd;stroke:#000000;stroke-width:1.0pt"
         d="M 0.0,5.65 L 0.0,-5.65"
         id="path4229" />
    </marker>
    <marker
       style="overflow:visible"
       id="Arrow2Sstart"
       refX="0.0"
       refY="0.0"
       orient="auto"
       inkscape:stockid="Arrow2Sstart">
      <path
         transform="scale(0.3) translate(-2.3,0)"
         d="M 8.7185878,4.0337352 L -2.2072895,0.016013256 L 8.7185884,-4.0017078 C 6.9730900,-1.6296469 6.9831476,1.6157441 8.7185878,4.0337352 z "
         style="font-size:12.0;fill-rule:evenodd;stroke-width:0.62500000;stroke-linejoin:round"
         id="path4146" />
    </marker>
    <marker
       style="overflow:visible"
       id="DiamondS"
       refX="0.0"
       refY="0.0"
       orient="auto"
       inkscape:stockid="DiamondS">
      <path
         transform="scale(0.2)"
         style="fill-rule:evenodd;stroke:#000000;stroke-width:1.0pt;marker-start:none"
         d="M 0,-7.0710768 L -7.0710894,0 L 0,7.0710589 L 7.0710462,0 L 0,-7.0710768 z "
         id="path4202" />
    </marker>
    <marker
       orient="auto"
       refY="0"
       refX="0"
       id="RazorWire"
       inkscape:stockid="RazorWire">
       style=&quot;overflow:visible&quot;&gt;
      <path
   d="M 0.022727273,-0.74009011 L 0.022727273,0.69740989 L -7.7585227,3.0099099 L 10.678977,3.0099099 L 3.4914773,0.69740989 L 3.4914773,-0.74009011 L 10.741477,-2.8963401 L -7.7272727,-2.8963401 L 0.022727273,-0.74009011 z "
   style="fill:#808080;fill-opacity:1;fill-rule:evenodd;stroke:#000000;stroke-width:0.1pt"
   transform="scale(0.8,0.8)"
   id="path4286" />
</marker>
    <inkscape:perspective
       id="perspective5233"
       inkscape:persp3d-origin="16 : 10.666667 : 1"
       inkscape:vp_z="32 : 16 : 1"
       inkscape:vp_y="0 : 1000 : 0"
       inkscape:vp_x="0 : 16 : 1"
       sodipodi:type="inkscape:persp3d" />
    <inkscape:perspective
       id="perspective5412"
       inkscape:persp3d-origin="250 : 166.66667 : 1"
       inkscape:vp_z="500 : 250 : 1"
       inkscape:vp_y="0 : 1000 : 0"
       inkscape:vp_x="0 : 250 : 1"
       sodipodi:type="inkscape:persp3d" />
    <inkscape:perspective
       id="perspective5571"
       inkscape:persp3d-origin="202.85715 : 136.19048 : 1"
       inkscape:vp_z="405.71429 : 204.28572 : 1"
       inkscape:vp_y="0 : 1000 : 0"
       inkscape:vp_x="0 : 204.28572 : 1"
       sodipodi:type="inkscape:persp3d" />
    <inkscape:perspective
       id="perspective6552"
       inkscape:persp3d-origin="64 : 42.666667 : 1"
       inkscape:vp_z="128 : 64 : 1"
       inkscape:vp_y="0 : 1000 : 0"
       inkscape:vp_x="0 : 64 : 1"
       sodipodi:type="inkscape:persp3d" />
    <inkscape:perspective
       id="perspective8761"
       inkscape:persp3d-origin="238.5 : 114.33333 : 1"
       inkscape:vp_z="477 : 171.5 : 1"
       inkscape:vp_y="0 : 1000 : 0"
       inkscape:vp_x="0 : 171.5 : 1"
       sodipodi:type="inkscape:persp3d" />
    <inkscape:perspective
       id="perspective10479"
       inkscape:persp3d-origin="52.830002 : 33.539668 : 1"
       inkscape:vp_z="105.66 : 50.309502 : 1"
       inkscape:vp_y="0 : 1000 : 0"
       inkscape:vp_x="0 : 50.309502 : 1"
       sodipodi:type="inkscape:persp3d" />
  </defs>
  <g
     id="g1327">
    <path
       d="M 66.275,1.768 C 24.94,1.768 1.704,23.139 1.704,66.804 L 1.704,516.927 C 1.704,557.771 22.599,579.156 63.896,579.156 L 515.92,579.156 C 557.227,579.156 578.149,558.841 578.149,516.927 L 578.149,66.804 C 578.149,24.203 557.227,1.768 514.628,1.768 C 514.624,1.768 66.133,1.625 66.275,1.768 z "
       style="fill:#111;stroke:#eee;stroke-width:3.40799999"
       id="path1329" />
  </g>
  <g
     id="layer3"
     inkscape:label="Layout"
     style="display:none;stroke:#757575;stroke-opacity:1"
     transform="matrix(48.14969,0,0,48.14969,-536.27327,-33.306752)">
    <rect
       style="fill:none;stroke:#757575;stroke-width:0.10000000000000001;stroke-miterlimit:4;stroke-dasharray:none;stroke-opacity:1;display:inline"
       id="rect4134"
       width="10"
       height="10"
       x="1"
       y="1" />
    <rect
       style="fill:none;stroke:#757575;stroke-width:0.10000000000000001;stroke-miterlimit:4;stroke-dasharray:none;stroke-opacity:1;display:inline"
       id="rect4136"
       width="8"
       height="8"
       x="2"
       y="2" />
  </g>
  <path
     style="fill-rule:evenodd;stroke:none;stroke-width:0.18338014000000000;stroke-miterlimit:10;fill:#ffffff;fill-opacity:1"
     d="M 291.6875 37.21875 C 143.19033 37.21875 22.65625 151.99467 22.65625 293.40625 C 22.65625 434.81273 143.18524 549.5625 291.6875 549.5625 C 440.18977 549.5625 560.71877 434.81272 560.71875 293.40625 C 560.71875 151.99468 440.18469 37.218751 291.6875 37.21875 z M 271.5 58.5 L 327.625 104.90625 L 312.78125 164.125 L 250.4375 193.09375 L 171.5625 172.1875 L 159.84375 123.96875 L 190.09375 78.3125 L 271.5 58.5 z M 411.25 83.25 L 483.5 142.5 L 463.15625 216.59375 L 397.125 226.46875 L 335.34375 164.6875 L 345.21875 108.5625 L 411.25 83.25 z M 151.21875 94.25 C 148.65143 104.33591 146.07144 114.44535 143.6875 124.53125 L 107.375 133.875 C 110.30908 128.55698 114.00512 123.61575 118.40625 119.03125 C 122.25723 114.07999 126.28395 109.28848 131.96875 105.4375 C 137.65353 101.03637 143.33342 97.550847 151.21875 94.25 z M 162.78125 191.46875 L 235.5625 211.8125 L 254.09375 290.65625 L 178.1875 349.34375 L 112.15625 347.5 L 95.46875 259.84375 L 162.78125 191.46875 z M 472.3125 236.1875 L 509.34375 298.5625 L 458.1875 383.09375 L 394 377.03125 L 370.53125 323.3125 L 409.96875 247.375 L 472.3125 236.1875 z M 36.78125 257.46875 L 75.125 269.75 L 95.46875 354.84375 L 70.71875 399.40625 C 64.850589 401.78509 59.336915 395.55027 53.46875 382.71875 C 47.050446 368.78185 38.434082 340.71784 35.5 319.8125 C 32.749296 298.71868 32.930267 278.1907 36.78125 257.46875 z M 544.03125 291.75 C 544.21466 313.0221 542.54672 330.99653 539.0625 349.15625 C 534.84475 367.1224 528.60483 383.45288 522.375 396.65625 C 516.14519 409.121 510.44544 417.94433 503.84375 423.8125 L 474.15625 389.3125 L 526.03125 301.65625 L 544.03125 291.75 z M 268.75 305.875 L 351.46875 327.53125 L 377.875 389.6875 L 332.21875 449.65625 L 229.15625 428.03125 L 195.21875 360.15625 L 268.75 305.875 z M 220.71875 443.40625 L 330.03125 462.6875 L 361.375 510.71875 L 353.5 531.8125 C 338.27944 534.02323 322.85209 535.66449 306.53125 536.03125 C 289.66029 536.39803 271.69583 536.01621 255.375 534.1875 C 237.95388 531.62017 221.80777 527.0271 207.6875 522.4375 C 193.56723 517.49135 182.75452 512.00381 173.21875 505.21875 L 171.9375 480.46875 L 220.71875 443.40625 z "
     id="path10456" />
  <path
     style="opacity:0.20192309;fill:#ffffff;fill-rule:evenodd;stroke:#000000;stroke-width:0.18338014;stroke-miterlimit:10"
     clip-rule="evenodd"
     d="M 151.21755,94.265209 C 143.33221,97.566052 137.64742,101.05027 131.96264,105.4514 C 126.27785,109.30238 122.24349,114.07027 118.39251,119.02153 C 113.99138,123.60603 110.32378,128.5573 107.3897,133.87532 L 143.69897,124.52293 L 143.69897,124.52293 C 146.08291,114.43703 148.65023,104.35112 151.21755,94.265209 z"
     i:knockout="Off"
     stroke-miterlimit="10"
     id="path10544" />
  <path
     style="opacity:0.20192309;fill:#ffffff;fill-rule:evenodd;stroke:#000000;stroke-width:0.18338014;stroke-miterlimit:10"
     clip-rule="evenodd"
     d="M 190.09415,78.311135 L 271.51493,58.506079 L 327.62926,104.90126 L 312.77547,164.13305 L 250.42622,193.10711 L 171.57275,172.20177 L 159.83642,123.97279 L 190.09415,78.311135 z"
     i:knockout="Off"
     stroke-miterlimit="10"
     id="path10546" />
  <path
     style="opacity:0.20192309;fill:#ffffff;fill-rule:evenodd;stroke:#000000;stroke-width:0.18338014;stroke-miterlimit:10"
     clip-rule="evenodd"
     d="M 345.23376,108.56886 L 335.33632,164.68319 L 397.1303,226.4823 L 463.1472,216.57977 L 483.5024,142.49419 L 411.2506,83.2624 L 345.23376,108.56886 z"
     i:knockout="Off"
     stroke-miterlimit="10"
     id="path10548" />
  <path
     style="opacity:0.20192309;fill:#ffffff;fill-rule:evenodd;stroke:#000000;stroke-width:0.18338014;stroke-miterlimit:10"
     clip-rule="evenodd"
     d="M 409.9669,247.38764 L 472.3162,236.20145 L 509.359,298.5507 L 458.1959,383.08895 L 394.0129,377.03741 L 370.5453,323.30193 L 409.9669,247.38764 z"
     i:knockout="Off"
     stroke-miterlimit="10"
     id="path10550" />
  <path
     style="opacity:0.20192309;fill:#ffffff;fill-rule:evenodd;stroke:#000000;stroke-width:0.18338014;stroke-miterlimit:10"
     clip-rule="evenodd"
     d="M 503.8576,423.79935 L 474.15,389.32388 L 526.0466,301.66307 L 544.0178,291.76564 C 544.2012,313.03773 542.5508,331.0039 539.0666,349.16362 C 534.8488,367.12979 528.6088,383.45571 522.379,396.65908 C 516.1492,409.12384 510.4593,417.93118 503.8576,423.79935 z"
     i:knockout="Off"
     stroke-miterlimit="10"
     id="path10552" />
  <path
     style="opacity:0.20192309;fill:#ffffff;fill-rule:evenodd;stroke:#000000;stroke-width:0.18338014;stroke-miterlimit:10"
     clip-rule="evenodd"
     d="M 195.22879,360.16643 L 268.76423,305.88591 L 351.46868,327.52477 L 377.8754,389.69573 L 332.21377,449.65595 L 229.15412,428.01709 L 195.22879,360.16643 z"
     i:knockout="Off"
     stroke-miterlimit="10"
     id="path10554" />
  <path
     style="opacity:0.20192309;fill:#ffffff;fill-rule:evenodd;stroke:#000000;stroke-width:0.18338014;stroke-miterlimit:10"
     clip-rule="evenodd"
     d="M 353.48586,531.80517 C 338.26531,534.01591 322.86138,535.65615 306.54054,536.02291 C 289.66957,536.38967 271.69831,536.02291 255.37748,534.1942 C 237.95637,531.62688 221.81891,527.04238 207.69864,522.45278 C 193.57837,517.50661 182.75894,512.0052 173.22317,505.22014 L 171.93951,480.45872 L 220.71863,443.42102 L 330.0183,462.68103 L 361.3712,510.72664 L 353.48586,531.80517 z"
     i:knockout="Off"
     stroke-miterlimit="10"
     id="path10556" />
  <path
     style="opacity:0.20192309;fill:#ffffff;fill-rule:evenodd;stroke:#000000;stroke-width:0.18338014;stroke-miterlimit:10"
     clip-rule="evenodd"
     d="M 95.46999,259.85749 L 162.7705,191.45669 L 235.57242,211.81189 L 254.09382,290.66536 L 178.17444,349.3521 L 112.15758,347.5132 L 95.46999,259.85749 z"
     i:knockout="Off"
     stroke-miterlimit="10"
     id="path10558" />
  <path
     style="opacity:0.20192309;fill:#ffffff;fill-rule:evenodd;stroke:#000000;stroke-width:0.18338014;stroke-miterlimit:10"
     clip-rule="evenodd"
     d="M 70.71367,399.41488 C 64.8455,401.79373 59.3441,395.55371 53.47593,382.72219 C 47.05763,368.7853 38.43876,340.72814 35.50468,319.8228 C 32.75397,298.72899 32.93735,278.1955 36.78834,257.47355 L 75.11479,269.76002 L 95.46999,354.8535 L 70.71367,399.41488 z"
     i:knockout="Off"
     stroke-miterlimit="10"
     id="path10560" />
</svg>

<svg xmlns="http://www.w3.org/2000/svg" viewBox="0 0 580 580"><path d="m66.28 1.768c-41.34 0-64.57 21.371-64.57 65.04v450.12c0 40.844 20.895 62.23 62.19 62.23h452.02c41.31 0 62.23-20.315 62.23-62.23v-450.12c0-42.601-20.922-65.04-63.52-65.04-.004 0-448.5-.143-448.35 0z" fill="#111" stroke="#eee" stroke-width="3.408"/><g fill="#fff" fill-rule="evenodd"><path d="m291.69 37.22c-148.5 0-269.03 114.78-269.03 256.19 0 141.41 120.53 256.16 269.03 256.16 148.5 0 269.03-114.75 269.03-256.16 0-141.41-120.53-256.19-269.03-256.19m-20.19 21.281l56.12 46.41-14.844 59.22-62.34 28.969-78.875-20.906-11.719-48.22 30.25-45.656 81.41-19.813m139.75 24.75l72.25 59.25-20.344 74.09-66.03 9.875-61.781-61.781 9.875-56.12 66.03-25.313m-260.03 11c-2.567 10.09-5.147 20.2-7.531 30.28l-36.31 9.344c2.934-5.318 6.63-10.259 11.03-14.844 3.851-4.951 7.878-9.743 13.563-13.594 5.685-4.401 11.365-7.887 19.25-11.188m11.563 97.22l72.78 20.344 18.531 78.84-75.906 58.688-66.03-1.844-16.688-87.66 67.31-68.37m309.53 44.719l37.03 62.37-51.16 84.53-64.19-6.06-23.469-53.719 39.438-75.938 62.34-11.188m-435.53 21.281l38.34 12.281 20.344 85.09-24.75 44.563c-5.868 2.379-11.382-3.856-17.25-16.688-6.418-13.937-15.03-42-17.969-62.906-2.751-21.09-2.57-41.622 1.281-62.34m507.25 34.28c.183 21.272-1.485 39.25-4.969 57.41-4.218 17.966-10.458 34.3-16.688 47.5-6.23 12.465-11.93 21.288-18.531 27.16l-29.688-34.5 51.875-87.66 18-9.906m-275.28 14.12l82.72 21.656 26.406 62.16-45.656 59.969-103.06-21.625-33.938-67.875 73.53-54.28m-48.03 137.53l109.31 19.281 31.344 48.03-7.875 21.09c-15.221 2.211-30.648 3.852-46.969 4.219-16.871.367-34.835-.015-51.16-1.844-17.421-2.567-33.567-7.16-47.688-11.75-14.12-4.946-24.933-10.434-34.469-17.219l-1.281-24.75 48.781-37.06"/><g stroke="#000" stroke-width=".183" stroke-miterlimit="10"><path d="m151.22 94.27c-7.885 3.301-13.57 6.785-19.255 11.186-5.685 3.851-9.719 8.619-13.57 13.57-4.401 4.585-8.07 9.536-11 14.854l36.31-9.352c2.384-10.09 4.951-20.17 7.519-30.26z" opacity=".202"/><path d="m190.09 78.31l81.42-19.805 56.11 46.4-14.854 59.23-62.35 28.974-78.85-20.905-11.736-48.23 30.26-45.662z" opacity=".202"/><path d="m345.23 108.57l-9.897 56.11 61.794 61.799 66.02-9.903 20.355-74.09-72.25-59.23-66.02 25.306z" opacity=".202"/><path d="m409.97 247.39l62.35-11.186 37.04 62.35-51.16 84.54-64.18-6.05-23.468-53.735 39.42-75.914z" opacity=".202"/><path d="m503.86 423.8l-29.708-34.475 51.897-87.66 17.971-9.897c.183 21.272-1.467 39.24-4.951 57.4-4.218 17.966-10.458 34.29-16.688 47.5-6.23 12.465-11.92 21.272-18.521 27.14z" opacity=".202"/><path d="m195.23 360.17l73.54-54.28 82.7 21.639 26.407 62.17-45.662 59.96-103.06-21.639-33.925-67.851z" opacity=".202"/><path d="m353.49 531.81c-15.221 2.211-30.624 3.851-46.945 4.218-16.871.367-34.842 0-51.16-1.829-17.421-2.567-33.559-7.152-47.679-11.741-14.12-4.946-24.94-10.448-34.475-17.233l-1.284-24.761 48.779-37.04 109.3 19.26 31.353 48.05-7.885 21.08z" opacity=".202"/><path d="m95.47 259.86l67.3-68.4 72.802 20.355 18.521 78.85-75.919 58.687-66.02-1.839-16.688-87.66z" opacity=".202"/><path d="m70.71 399.41c-5.868 2.379-11.37-3.861-17.238-16.693-6.418-13.937-15.04-41.994-17.971-62.899-2.751-21.09-2.567-41.627 1.284-62.35l38.33 12.286 20.355 85.09-24.756 44.561z" opacity=".202"/></g></g></svg>
